X:80
T:Nebuchadnezzar's Delight. JJo8.080
B:J.Johnson Choice Collection Vol 8 1758
Z:vmp.Simon Wilson 2013 www.village-music-project.org.uk
M:6/8
L:1/8
Q:3/8=120
K:C
|:{d}"^tr"c>Bc {d}"^tr"cBc|cGF EDC|DBd Ece|Ffd {c}BAG|
{d}c>Bc {c}c>Bc|ca^f gfg|edc BdG|Ac^FG3:|
|:GA_B BgG|GA_B AGF|ABc cAa|ABc BAG|
aed gec|Afd BAG|AGF EGC|DAB,C3:|
